dist/svg/refresh.svg

<!-- Generated by Trend Micro Style Portal -->
<svg version="1.1" xmlns="http://www.w3.org/2000/svg" width="16" height="16" viewBox="0 0 16 16">
  <title>refresh</title>
  <path fill="rgb(34,34,34)" d="M4 10.999l0.009 0.013c0.922 1.213 2.366 1.988 3.991 1.988 2.408 0 4.418-1.702 4.894-3.968l0.006-0.033h2.1l-0.005 0.040c-0.565 3.398-3.48 5.957-6.995 5.96h-0c-2.181-0.002-4.129-1.002-5.41-2.568l-0.010-0.012-1.58 1.58v-5h5zM12.9 7h2.1v-5l-1.58 1.58-0.010-0.012c-1.291-1.572-3.234-2.568-5.41-2.568h-0c-3.527 0.007-6.45 2.585-6.995 5.959l-0.005 0.041h2.1l0.006-0.033c0.494-2.283 2.497-3.969 4.893-3.969 1.631 0 3.079 0.781 3.992 1.988l0.009 0.013-2 2h2.9z"></path>
</svg>

<svg width="16" height="16" viewBox="0 0 16 16" fill="rgb(34, 34, 34)" xmlns="http://www.w3.org/2000/svg"><title>refresh</title><path d="M4 10.999L4.009 11.012C4.931 12.225 6.375 13 8 13C10.408 13 12.418 11.298 12.894 9.032L12.9 8.999H15L14.995 9.039C14.43 12.437 11.515 14.996 8 14.999C5.819 14.997 3.871 13.997 2.59 12.431L2.58 12.419L1 13.999V8.999H6L4 10.999ZM12.9 7H15V2L13.42 3.58L13.41 3.568C12.119 1.996 10.176 1 8 1C4.473 1.007 1.55 3.585 1.005 6.959L1 7H3.1L3.106 6.967C3.6 4.684 5.603 2.998 7.999 2.998C9.63 2.998 11.078 3.779 11.991 4.986L12 4.999L10 6.999L12.9 7Z" fill="rgb(34, 34, 34)" fill-opacity="1.00"/></svg>
